!!!COM: Scriabin, Alexander
!!!OTL: Impromptu
!!!OPR: 2 Impromptus
!!!OPS: 10
!!!ONM: 1
!!!ODT: 1894
!!!AGN: Impromptu
**kern	**kern
*staff2	*staff1
*clefG2	*clefG2
*k[f#c#g#]	*k[f#c#g#]
*f#:	*f#:
*M3/4	*M3/4
=1	=1
*^	*
4raa	2e#X	8r
.	.	8cc#
2A 2c# 2cc#	.	8ccc#L
.	.	8gg#J
.	4f#	12aaL
.	.	12ee#X
.	.	12ff#J
*v	*v	*
=2	=2
4r	8aaL
.	8eeJ
4A 4c# 4gn 4cc#	2ee
[4A 4c# 4g 4b	.
=3	=3
*^	*
4A] 4d 4f# 4a	4rc	8r
.	.	8dd
2A 2f# 2dd	4d	8ff#L
.	.	8cc#J
.	4B	12ddL
.	.	12a#X
.	.	12bJ
*v	*v	*
=4	=4
4r	8ddL
.	8dJ
4G# 4B 4b	2d
4F# 4B 4a	.
=5	=5
*^	*^
2E#X 2g#	2.B	8raa	8rc
.	.	8d	[8d
.	.	8cc#L	4d]
.	.	8bJ	.
4F# 4f#	.	12aL	4a
.	.	12ee	.
.	.	12ddJ	.
=6	=6	=6	=6
2G# 2b	4d	8raa	8rc
.	.	8e#X	[8e#
.	8c#L	8eenL	4e#]
.	8BJ	8ddJ	.
4A 4a	4c#	12cc#L	4f#
.	.	12aa	.
.	.	12gg#J	.
=7	=7	=7	=7
4raa	2B	8ff#L	4rc
.	.	8ee#X	.
8aL	.	8ff#	4dd
8g#J	.	8gg#	.
8g#L	4B#X	8gg#	4dd 4ff#
8f#J	.	8aaJ	.
=8	=8	=8	=8
8aL	2c#	8ccc#L	2dd 2ff#
8g#J	.	8bbJ	.
4b	.	4ddd	.
8aL	4c#	4ee#X	4b
8g#J	.	.	.
*	*	*v	*v
=9	=9	=9
[4f#	4f#	8r
.	.	8ff#
2d 2f#] 2ff#	4a#X	8fff#L
.	.	8ccc#J
.	4b	12dddL
.	.	12aa#X
.	.	12bbJ
*v	*v	*
=10	=10
4r	8dddL
.	8aanJ
4d 4f# 4ccn 4ff#	2aa
[4d 4f# 4cc 4ee	.
=11	=11
*^	*
4d] 4gn 4b 4dd	4rc	8r
.	.	8ggn
2d 2b 2ggn	4g	8bbL
.	.	8ff#J
.	4e	12ggL
.	.	12dd#X
.	.	12eeJ
*v	*v	*
=12	=12
4r	8ggnL
.	8gnJ
4c# 4e 4ee	2g
4B 4e 4ee	.
=13	=13
*^	*^
2A#X 2cc#	2.e	8raa	8rc
.	.	8gn	[8g
.	.	8ff#L	4g]
.	.	8eeJ	.
4B 4b	.	12ddL	4dd
.	.	12aa	.
.	.	12ggnJ	.
=14	=14	=14	=14
2c# 2ee	4gn	8raa	8rc
.	.	8a#X	[8a#
.	8f#L	8aanL	4a#]
.	8eJ	8ggnJ	.
4d 4dd	4f#	12ff#L	4b
.	.	12ddd	.
.	.	12ccc#J	.
*v	*v	*	*
*clefF4	*	*
=15	=15	=15
4D	8bbL	4rc
.	8gg#X	.
4B 4f# 4a	8aa	4ff#
.	8bb	.
4E 4d 4g#	8bb	8ffnL
.	8bb#XJ	8eeJ
=16	=16	=16
*^	*	*
8dL 8g#	4rEE	8bb#XL	2ee
8c#J 8a	.	8ccc#J	.
4rc	8rEE	4eee	.
.	8E	.	.
4B#X 4g#	8F#L	4ee	4rc
.	8EJ	.	.
=17	=17	=17	=17
4AA	4rEE	8raa	8rc
.	.	8e	[8e
4d 4g#	2E	8eeL	2e]
.	.	8b#XJ	.
4c# 4a	.	12cc#L	.
.	.	12g#	.
.	.	12aJ	.
*	*	*v	*v
=18	=18	=18
8rc	4GGn	8cc#L
8E	.	8c#J
8eL	4A	8c#
8B#XJ	.	8r
12c#L	4E	4r
12G#X	.	.
12AJ	.	.
*v	*v	*
=19	=19
*	*^
8FF#L	8raa	4rc
8E 8A#X	8gn	.
8Gn 8f#	8ff#L	8a#XL
8C#J 8A#	8ee	8gJ
[4G [4e	8dd	[4a#
.	8cc#J	.
=20	=20	=20
8GL] 8e]	8cc#L	8a#L]
8F#J 8d	8ddJ	8bJ
8F# 8d	8dd	8b
8E#X	8raa	8rc
8GnL	4raa	4rc
8F#J	.	.
*	*v	*v
=21	=21
*^	*
4BB	4rEE	8r
.	.	8f#
4e 4a#X	2F#	8ff#L
.	.	8cc#J
4d 4b	.	12ddL
.	.	12a#X
.	.	12bJ
=22	=22	=22
8rc	4AA	8ddL
8F#	.	8dJ
8f#L	4B	8d
8c#J	.	8r
12dL	4F#	4r
12A#X	.	.
12BJ	.	.
*v	*v	*
=23	=23
*	*^
8GG#L	8raa	4rc
8F# 8B#X	8a	.
8A 8g#	8gg#L	8b#XL
8D#XJ 8B#	8ff#	8aJ
4A 4f#	8ee#X	4b#
.	8dd#XJ	.
=24	=24	=24
*^	*	*
4CC#	4rEE	8raa	4rc
.	.	8cc#	.
4A	4.C# 4.e#X	8ee#XL	4f# 4a
.	.	8cc#J	.
4G#	.	4cc#	4e#X 4g#
.	8GG#	.	.
*v	*v	*	*
=25	=25	=25
4CC#	8raa	4rc
.	8a	.
4C# 4A 4c#	8cc#L	4d 4f#
.	8aJ	.
8C# 8A 8c#	8raa	8e
8FF#	8raa	8rc
=26	=26	=26
4CC#	8raa	4rc
.	8f#	.
4C# 4A	8aL	4B 4d
.	8f#J	.
8C# 8A	8f#	8c#
8FF#	8raa	8rc
=27	=27	=27
4CC#	8raa	4rc
.	8d	.
4C# 4F#	8f#L	4G# 4B
.	8dJ	.
8C# 8F#	4d	4A
8FF#	.	.
=28	=28	=28
4CC# 4GG#	8c#	4E#X 4G#
.	8d	.
4GGGn 4GGn	8e#XL	[2E# [2B
.	8dJ	.
4GGG#X [4GG#X	4d	.
=29	=29	=29
4CC# 4GG#]	8c#	4E#] 4B]
.	8d	.
4GGGn 4GGn	8e#XL	[2E#X [2B
.	8dJ	.
4GGG#X [4GG#X	4d	.
=30	=30	=30
4CC# 4GG#]	4c#	4E#] 4B]
4B#X	4raa	4rc
4c#	4raa	4rc
*	*v	*v
=31	=31
4d	2.r
4d#X	.
4e	.
*clefG2	*
=32	=32
*^	*
4raa	2e#X	8r
.	.	8cc#
2A 2c# 2cc#	.	8ccc#L
.	.	8gg#J
.	4f#	12aaL
.	.	12ee#X
.	.	12ff#J
=33	=33	=33
*	*	*^
4gn	4rc	8aaL	8rc
.	.	8eeJ	8c#
4raa	4A 4c# 4g	2ee	8bL
.	.	.	8a
4raa	[4A 4c# 4g	.	8b
.	.	.	8cc#J
=34	=34	=34	=34
4raa	4A] 4d 4f#	8raa	4f#
.	.	8dd	.
2A 2f# 2dd	4d	8ff#L	4rc
.	.	8cc#XJ	.
.	4B	12ddL	4rc
.	.	12a#X	.
.	.	12bJ	.
=35	=35	=35	=35
4raa	4rc	8ddL	8rc
.	.	8dJ	8cc#
2B 2f#	4G#	2d	8bL
.	.	.	8a
.	4F#	.	8b
.	.	.	8cc#J
=36	=36	=36	=36
4E 4g#X	2B	8raa	8rc
.	.	8d	[8d
4E#X 4gn	.	8cc#L	4d]
.	.	8bJ	.
4F# 4f#	4rc	12bL	4d
.	.	12ggn	.
.	.	12ff#J	.
=37	=37	=37	=37
4Gn 4b	2d	8raa	8rc
.	.	8e#X	[8e#
4G#X 4b-X	.	8eenL	4e#]
.	.	8ddJ	.
4A 4a	4rc	12ddL	4f#
.	.	12aa	.
.	.	12gg#J	.
=38	=38	=38	=38
4raa	2B	8ff#L	4rc
.	.	8ee#X	.
8aL	.	8ff#	4dd
8g#J	.	8gg#	.
8g#L	4B#X	8gg#	4dd 4ff#
8f#J	.	8aaJ	.
=39	=39	=39	=39
8aL	2c#	8ccc#L	2dd 2ff#
8g#J	.	8bbJ	.
4b	.	4ddd	.
8aL	4c#	4ee#X	4b
8g#J	.	.	.
*	*	*v	*v
=40	=40	=40
4raa	4f#	8r
.	.	8ff#
2d 2f# 2ff#	4a#X	8fff#L
.	.	8ccc#J
.	4b	12dddL
.	.	12aa#X
.	.	12bbJ
=41	=41	=41
*	*	*^
4ccn	4rc	8dddL	8rc
.	.	8aaJ	8f#
4raa	4d 4f# 4cc	2aa	8eeL
.	.	.	8dd
4raa	4d 4f# 4cc	.	8ee
.	.	.	8ff#J
=42	=42	=42	=42
4raa	4d 4gn 4b	8raa	4b
.	.	8ggn	.
2d 2b 2ggn	4g	8bbL	4rc
.	.	8ff#J	.
.	4e	12ggL	4rc
.	.	12dd#X	.
.	.	12eeJ	.
=43	=43	=43	=43
4raa	4rc	8ggnL	8rc
.	.	8gnJ	8ff#
2e 2b	4c#	2g	8eeL
.	.	.	8dd
.	4B	.	8ee
.	.	.	8ff#J
=44	=44	=44	=44
4A 4cc#	2e	8raa	8rc
.	.	8gn	[8g
4A#X 4ccn	.	8ff#L	4g]
.	.	8eeJ	.
4B 4b	4rc	12ddL	4g
.	.	12aa	.
.	.	12ggnJ	.
=45	=45	=45	=45
2c# 2ee	4gn	8raa	8rc
.	.	8a#X	[8a#
.	8f#L	8aanL	4a#]
.	8eJ	8ggnJ	.
4d 4dd	4f#	12ff#L	4b
.	.	12ddd	.
.	.	12ccc#J	.
*v	*v	*	*
=46	=46	=46
*clefF4	*	*
4C#	8bbL	4rc
.	8ee#X	.
4B 4f#	8ff#	4dd
.	8gg#	.
4B 4e#X	8gg#	4dd
.	8aaJ	.
=47	=47	=47
4A 4f#	8dddL	2.dd 2.ff#
.	8aa	.
4C#	8aa	.
.	8bbJ	.
4r	4ccc#	.
=48	=48	=48
4C#	8raa	4rc
.	8e#X	.
4B	8f#L	4d
.	8g#	.
4e#X	8g#	4d
.	8aJ	.
=49	=49	=49
4A 4f#	8ddL	2d
.	8a	.
4C#	8a	.
.	8bJ	.
4r	4cc#	4rc
=50	=50	=50
4G# 4f#	8cc#L	2d#X
.	8g#	.
4C#	8g#	.
.	8a#XJ	.
4r	4b	4rc
*	*v	*v
=51	=51
4B 4e#X	8cc#L
.	8c#
4..C#	8e#X
.	8d#X
.	8f#
.	8g#J
16FF# [16F#	.
=52||	=52||
*k[f#c#g#d#a#e#]	*k[f#c#g#d#a#e#]
*	*^
4..C# 4..F#]	2.ryy	4A# 4c# 4f# 4a#
.	.	4..B 4..c# 4..f# 4..g#
16CC# [16C#	.	.
8.FF# 8.C#]	.	.
16FF# [16F#	.	[16c# [16f# 16a#
=53	=53	=53
4..C# 4..F#]	8.A#L 8.cc#	4c#] 4f#]
.	16BJk 16g#	.
.	4..B 4..c# 4..f# 4..g#	4rc
16CC# [16C#	.	.
8.FF# 8.C#]	.	4rc
[16C#	16raa	.
*	*v	*v
=54	=54
8.FF#L 8.C#] 8.A#	4f# 4a# 4cc# 4ff#
16AA#Jk [16A#	.
8.C#L 8.A#]	4e# 4a# 4cc# 4ee#
16AA#Jk [16A#	.
8.D#L 8.A#]	4d# 4f# 4cc# 4dd#
16D#Jk 16A#	.
=55	=55
24G#LL	4d# 4f# 4b 4dd#
24A#	.
48d#Jk	.
48r	.
24c#L	.
24B	.
24A#JJ	.
4G#	4..c# 4..e# 4..b 4..cc#
8.C#	.
16GG# [16G#	16r
=56	=56
*	*^
4..D# 4..G#]	2.ryy	4B 4d# 4g# 4b
.	.	4..c# 4..d# 4..g# 4..a#
16DD# [16D#	.	.
8.GG# 8.D#]	.	.
16GG# [16G#	.	[16d# [16g# 16b
=57	=57	=57
4..D# 4..G#]	8.BL 8.dd#	4d#] 4g#]
.	16c#Jk 16a#	.
.	4..c# 4..d# 4..g# 4..a#	4rc
16DD# [16D#	.	.
8.GG# 8.D#]	.	4rc
[16D#	16raa	.
*	*v	*v
=58	=58
8.GG#L 8.D#] 8.B	4g# 4b 4dd# 4gg#
16D#Jk [16d#	.
8.A#L 8.d#]	4f# 4a# 4dd# 4ff#
16D#Jk [16d#	.
8.G#L 8.d#]	4f# 4b 4dd# 4ff#
16G#Jk 16d#	.
=59	=59
24c#LL	4e# 4b 4cc# 4ee#
24d#	.
48g#Jk	.
48r	.
24f#L	.
24e#	.
24d#JJ	.
4c#	2f# 2a# 2cc# 2ff#
4F#	.
=60	=60
*^	*
2.FF# 2.F#	4D#	4A# 4d# 4a#
.	4C#	2G##X 2d# 2g##X
.	4BB	.
=61	=61	=61
4FF# 4F#	4AA#	8.d#L 8.a# 8.dd#
.	.	16A#Jk 16a#
4EE# 4E#	2AA#	2A# 2c##X 2g# 2a#
4EEn 4En	.	.
*v	*v	*
=62	=62
4DD# 4D# 4A#	4f# 4a# 4dd# 4ff#
4GG# 4F# 4B	4f# 4b 4dd# 4ff#
4D# 4B 4f#	4g# 4dd# 4ff# 4gg#
=63	=63
4C# 4B 4e#	[4g# 4cc# 4ee# [4gg#
4CC# 4C#	8g#L] 8gg#]
.	8a#J 8aa#
4r	8cc#L 8ccc#
.	8c#J 8cc#
=64	=64
*	*^
16F#KL 16c# 16f#	4cc# 4ff# 4aa#	8a#L
8.C#J 8.c#	.	.
.	.	8bJ
16F#KL 16c# 16g#	2cc# 2ff# 2gg#	8bL
8.C#J 8.c#	.	.
.	.	8a#J
12CC#L 12C#	.	8a#L
12CC# 12C#	.	.
.	.	8g#J
12FFF#J 12FF#	.	.
=65	=65	=65
16F#KL 16c# 16f#	8.cc#L 8.ff# 8.ccc#	8a#L
8.C#J 8.c#	.	.
.	.	8bJ
.	16gg#Jk	.
16F#KL 16c# 16g#	2cc# 2ff# 2gg#	8bL
8.C#J 8.c#	.	.
.	.	8a#J
12CC#L 12C#	.	8a#L
12CC# 12C#	.	.
.	.	8g#J
12FFF#J 12FF#	.	.
*	*v	*v
=66	=66
*^	*
4A# 4f# 4cc#	12rEE	4ff# 4aa# 4ccc# 4fff#
.	12FF#L 12F#	.
.	12AA#J 12A#	.
4A# 4e# 4cc#	12rEE	4ee# 4aa# 4ccc# 4eee#
.	12AA#L 12A#	.
.	12C#J 12c#	.
4A# 4f# 4cc#	12rEE	4dd# 4ff# 4aa# 4ddd#
.	12D#L 12d#	.
.	12F#J 12f#	.
=67	=67	=67
4B 4f# 4b	12rEE	4dd# 4ff# 4bb 4ddd#
.	12G#L 12g#	.
.	12BJ 12b	.
4B 4f# 4b	12rEE	4ddn 4ff# 4bb 4dddn
.	12BBL 12B	.
.	12GG#J 12G#	.
4B 4dn 4e#X 4b	12rEE	4ee#X 4bb 4ddd 4eee#X
.	12BBL 12B	.
.	12GGnJ 12Gn	.
=68	=68	=68
4B 4dn 4f# 4b	12rEE	4ff# 4bb 4dddn 4fff#
.	12BBL 12B	.
.	12DDnJ 12Dn	.
4BB 4F# 4B	12rEE	4dn 4f# 4b 4ddn
.	12BBBL 12BB	.
.	12GGG#J 12GG#	.
4BB 4E#X 4B	12rEE	4e#X 4b 4dd 4ee#X
.	12BBBL 12BB	.
.	12GGGnJ 12GGn	.
=69	=69	=69
4BB 4F# 4B	12rEE	8f# 8b 8ff#
.	12BBBL 12BB	.
.	.	8f#
.	12DDDnJ 12DDn	.
4rc	4DDD 4DD	8.ff#L
.	.	16bJk
4rc	4rEE	4b
*v	*v	*
=70	=70
2.r	8r
.	8e#
.	12f#L
.	12a#
.	12bJ
.	4ddn
=71	=71
4DDn	8r
.	8f#
4AAn 4F# 4B#X	8.ff#L
.	16b#XJk
4r	4b#
=72	=72
8r	8r
8DDn	8e#
12AAnL	12f#L
12F#	12g#
12B#XJ	12anJ
*clefG2	*
8ddn	8bb#X
8r	8r
=73||	=73||
*k[f#c#g#]	*k[f#c#g#]
4A 4c# 4e#X 4cc#	8r
.	8cc#
*clefF4	*
4C#	8ccc#L
.	8gg#J
*clefG2	*
4A 4c# 4f# 4cc#	12aaL
.	12ee#X
.	12ff#J
=74	=74
*	*^
8A 8c# 8gn 8cc#	8aaL	8rc
*clefF4	*	*
8C#	8eeJ	8cc#
8AL	2ee	8bL
8e	.	8a
8a	.	8b
8gnJ	.	8cc#J
*clefG2	*	*
=75	=75	=75
4A 4d 4a	8raa	4f#
.	8dd	.
*clefF4	*	*
4C#	8ff#L	4rc
.	8cc#J	.
*clefG2	*	*
4A 4B 4f# 4b	12ddL	4rc
.	12a#X	.
.	12bJ	.
=76	=76	=76
8G# 8B 8f# 8b	8ddL	8rc
*clefF4	*	*
8C#	8dJ	8cc#
8F#L	2d	8bL
8B	.	8a
8g#	.	8b
8f#J	.	8cc#J
=77	=77	=77
4G# 4e#X	8raa	8rc
.	8d	[8d
4C#	8cc#L	4d]
.	8bJ	.
4A 4f#	12aL	4d
.	12ee	.
.	12ddJ	.
*clefG2	*	*
=78	=78	=78
4B 4g#	8raa	8rc
.	8e#X	[8e#
*clefF4	*	*
4C#	8eenL	4e#]
.	8ddJ	.
*clefG2	*	*
4A 4c# 4a	12cc#L	4f#
.	12aa	.
.	12ggJ	.
*clefF4	*	*
=79	=79	=79
*^	*	*
4C#	4rEE	8ff#L	4rEE
.	.	8ee#J	.
*clefG2	*	*	*
8aL	4A 4B 4d	8ff#L	4dd
8g#J	.	8gg#J	.
8g#L	4A 4B 4d	8gg#L	4dd 4ff#
8f#J	.	8aaJ	.
=80	=80	=80	=80
4B 4d 4f#	8AL	8ccc#L	4dd 4ff#
.	8G#J	8bbJ	.
4G# 4d 4f# 4b	4rc	4bb 4ddd	4dd 4ff#
8aL	4c#	4ee#X	4b
8g#J	.	.	.
*v	*v	*	*
*	*v	*v
=81	=81
4A#X 4d 4f# 4a#X 4ff#	8r
.	8ff#
*clefF4	*
4C#	8fff#L
.	8ccc#J
*clefG2	*
4B 4d 4f# 4b 4ff#	12dddL
.	12aa#X
.	12bbJ
=82	=82
*	*^
8cn 8d 8f# 8a 8ff#	8dddL	8rc
*clefF4	*	*
8C#	8aaJ	8ff#
8AL	2aa	8eeL
*clefG2	*	*
8f#	.	8dd
8dd	.	8ee
8ccnJ	.	8ff#J
=83	=83	=83
4B 4d 4gn 4dd	8raa	4b
.	8ggn	.
*clefF4	*	*
4C#	8bbL	4rc
.	8ff#J	.
*clefG2	*	*
4B 4e 4g 4ee	12ggL	4rc
.	12dd#X	.
.	12eeJ	.
=84	=84	=84
8B 8e 8cc#	8ggnL	8rc
*clefF4	*	*
8C#	8gnJ	8ff#
8BL	2g	8eeL
*clefG2	*	*
8e	.	8dd
8cc#	.	8ee
8bJ	.	8ff#J
=85	=85	=85
4A#X 4e 4a#X	8raa	8rc
.	8gn	[8g
*clefF4	*	*
4C#	8ff#L	4g_
.	8eeJ	.
*clefG2	*	*
4B 4d 4b	12ddL	4g]
.	12aa	.
.	12ggnJ	.
=86	=86	=86
4c# 4e 4cc#	8raa	8rc
.	8a#X	[8a#
*clefF4	*	*
4C#	8aanL	4a#]
.	8ggnJ	.
*clefG2	*	*
4d 4f# 4dd	12ff#L	4b
.	12ddd	.
.	12ccc#J	.
*clefF4	*	*
=87	=87	=87
*^	*	*
4C#	4rEE	8bbL	4rc
.	.	8ee#X	.
*clefG2	*	*	*
2A 2d 2f# 2a	4B	8ff#	2dd
.	.	8gg#J	.
.	4B#X	4aa	.
*v	*v	*	*
*	*v	*v
=88	=88
*clefF4	*
4C#	8r
.	8ff# 8aa
*clefG2	*
4A 4c# 4f# 4a	8ff#L 8aa
.	8aJ 8cc#
4r	4a 4cc#
*clefF4	*
=89	=89
4C#	8r
.	8c#
4B 4e#X	8dL
.	8B#X
4r	8c#
.	8aJ
=90	=90
2.r	8g#L
.	8ddJ
.	4.cc#
.	8a
=91	=91
*^	*^
4A	12AL	8raa	8rc
.	12f#	.	.
.	.	8cc#	[8cc#
.	12c#J	.	.
4G#	12G#L	8ccc#L	4cc#]
.	12FF#	.	.
.	.	8gg#J	.
.	12C#J	.	.
4F#	12F#L	12aaL	4rc
.	12a	12ee#X	.
.	12c#J	12ff#J	.
=92	=92	=92	=92
2.ryy	12eL	8aaL	2.a 2.cc#
.	12c#	.	.
.	.	8eeJ	.
.	12F#J	.	.
.	12F#L	2ee	.
.	12FF#	.	.
.	12C#J	.	.
.	12AL	.	.
.	12G#	.	.
.	12F#J	.	.
=93	=93	=93	=93
4d	12dL	8raa	4rc
.	12f#	.	.
.	.	8dd	.
.	12AJ	.	.
4c#	12c#L	8ff#L	4a
.	12FF#	.	.
.	.	8cc#J	.
.	12F#J	.	.
4B	12BL	12ddL	4f#
.	12d	12a#X	.
.	12F#J	12bJ	.
=94	=94	=94	=94
4A	12AL	8ddL	2d 2f#
.	12cn	.	.
.	.	8aJ	.
.	12DJ	.	.
4rc	12DL	2a	.
.	12FF#	.	.
.	12DJ	.	.
4rc	12cL	.	4rc
.	12B	.	.
.	12AJ	.	.
=95	=95	=95	=95
4A	12AL	8raa	8rc
.	12C#X	.	.
.	.	8c#	[8c#
.	12FF#J	.	.
4G#	12G#L	8cc#L	4c#]
.	12FF#	.	.
.	.	8g#J	.
.	12C#J	.	.
4F#	12F#L	12aL	4rc
.	12C#	12e#X	.
.	12FF#J	12f#J	.
=96	=96	=96	=96
2.ryy	12EL	8aL	2.A 2.c#
.	12C#	.	.
.	.	8eJ	.
.	12FF#J	.	.
.	12FF#L	2e	.
.	12FFF#	.	.
.	12FF#J	.	.
.	12FF#L	.	.
.	12E	.	.
.	12C#J	.	.
=97	=97	=97	=97
4D	12DL	8raa	4rc
.	12FF#	.	.
.	.	8d	.
.	12FFF#J	.	.
4C#	12C#L	8f#L	4A
.	12FFF#	.	.
.	.	8c#J	.
.	12FF#J	.	.
4BB	12BBL	12dL	4F#
.	12FF#	12A#X	.
.	12FFF#J	12BJ	.
=98	=98	=98	=98
2.ryy	12AAL	8dL	2D 2F#
.	12FF#	.	.
.	.	8AJ	.
.	12FF#J	.	.
.	12FFF#L	4A	.
.	12FF#	.	.
.	12DJ	.	.
.	12cnL	4raa	4rc
.	12B	.	.
.	12AJ	.	.
*v	*v	*	*
=99	=99	=99
[2.FF# [2.D [2.B	8raa	8rc
.	8d	[8d
.	8ddL	2d]
.	8a#XJ	.
.	12bL	.
.	12f#	.
.	12gnJ	.
*	*v	*v
=100	=100
2.FF#] 2.D] 2.B]	8bL
.	8BJ
.	2B
=101	=101
*^	*
2G#	2.FF# 2.D	8e#XL
.	.	8E#XJ
.	.	2E#
4Gn	.	.
=102	=102	=102
2F#	4FF# 4D	2B 2f#
.	4BBB	.
4rc	4rEE	8G#L
.	.	8A#XJ
*v	*v	*
=103	=103
[2.FFF# [2.FF# [2.C#	[2.A#X [2.f# [2.cc#
=104	=104
2FFF#] 2FF#] 2C#]	2A#] 2f#] 2cc#]
4r	4r
==	==
*-	*-
!!!system-decoration: {(*)}
!!!ENC: Bryan Jacob Bell
!!!END: November 2021 to April 2022
!!!PED: M.P. Belaieff
